X:1
T:Lovers In Japan
T:Lovers in Japan
T:Coldplay
C:Coldplay
Z:All Rights Reserved
L:1/4
M:2/2
K:G
V:1 treble 
%%MIDI program 40
V:1
"Em7" z4 |"Cmaj7" z4 | z4 | z4 |"G/B" z4 |"D/A" z4 | z4 | z4 :|"^(G)" z4 | z4 | z4 | z4 | %12
w: ||||||||||||
w: ||||||||||||
"^(G/D)" z4 | z4 | z4 | z4 |"^(G/C)" z4 | z4 | z4 | z4 |"^(G)" z4 | z4 | z4 | z4 |S"^(G)" A B3- | %25
w: ||||||||||||Lov- ers,-|
w: ||||||||||||night- *|
 B4 | z B B B | d3 G | F2 z2 |"^(G/D)" z4 | z4 | z2 z A |"^(G/C)" B4- | B3 z | z B B B | d3 E | %36
w: |keep on the|road you're|on,|||run-|ners,-||un- til the|race is|
w: |may- be we're|gon- na|run,|||dream-|ing-||of the O-|sa- ka|
"^(G)" D2 z2 | z4 | z4 | z2 z A- | A B3- | B4 | z B B B | d3 G |"^(G/D)" F3 z | z4 | z4 | z2 z A- | %48
w: run.|||Sol-|* diers,-||you've got to|sol- dier|on,|||some-|
w: sun.|||Oh,-|||oh, * *|||||dream-|
"^(G/C)" A (B3- | B) c/B/ A B- | B B B B | d3 E |"^(G)" D3 z | z4 | z4 | z B d e- |"^(Em)" e e3 | %57
w: * times-||* ev- en the|right is|wrong.|||They are turn-|* ing|
w: * ing-||* of when the|morn- ing|comes.|||||
 z2 z e- |"^(C)" e e3- | (e2 d) d- |"^(G)" d4 | z2 z d |"^(D)" e3/2 d3/2 d | g2 f e- |"^(Em)" e4 | %65
w: my-|* head-|* * out-||to|see what I'm|all a- bout.-||
w: ||||||||
 z e B e- |"^(C)" e e3- | (e2 d) d- |"^(G)" d4 | z2 z d |"^(D)" d3/2 d3/2 d | g2 f2 |"^(Em)" e4 | %73
w: Keep- ing my-|* head-|* * down-||to|see what it|feels like|now.|
w: ||||||||
 z2 A B |"^(D)" d4- | d B2 E- |"^(C)" E4 | z2 z B- |"^(Am7)" B d3- | d2 (B F) |"^(D)" E F3- | %81
w: But I|have-|* no doubt,||one-|* day-|* we're- *|gon- na-|
w: ||||one-|* day-|* the- *|sun wil-|
 F2 F G-!dacoda! |"Em7" G4- | G2"Cmaj7" z2 | z4 | z4 |"G/B" z4 |"D/A" z4 | z4 | z4 |"Em7" z4 | %91
w: * get out.-||||||||||
w: * come out-||||||||||
"Cmaj7" z4 | z4 | z4 |"G/B" z4 |"D/A" z4 | z4 | z2 z D!D.S.! |:O"^(Em)" G4- | G2 z2 |"^(C)" z4 | %101
w: ||||||To-||||
w: ||||||||||
 z4 |"^(G/B)" z4 | z4 |"^(D)" z4 | z4 |"^(Em)" z4 | z4 |"^(C)" z4 | z4 |"^(G/B)" z4 | z4 | %112
w: |||||||||||
w: |||||||||||
"^(D)" z4 |1 z4 :|2"^(D)" z4 ||"^(G)" z4 | z4 | z4 | z4 | z4 | z4 | z4 | z4 | z4 |] %124
w: ||||||||||||
w: ||||||||||||

